X:1
T:Coleraine
L:1/8
M:6/8
I:linebreak $
K:C
V:1 treble 
V:1
"E7" E |"Am" EAA ABc |"E7" B2 e e2 d |"Am" cAA ABc |"E7" B^GE E2 E |"Am" EAA ABc |"E7" B2 e e2 d | %7
"Am" cBA"E7" B^GE |"Am" A3- A2 ||$"G7" B |"C" c2 c cdc |"G" Bdg"^(E)" g2 ^g |"Am" aed cBA | %13
"E7" ^GBG E^FG |"Am" A^GA"E7" BAB |"Am" cde"Dm" fed |"Am" cBA"E7" B^GE |$"Am" A3- A2 |] %18
